symbols/web/shop/materialsymbolssharp/shop_wght700gradN25_48px.svg

<svg xmlns="http://www.w3.org/2000/svg" height="48" width="48"><path d="M3 43.15V10.6h12.7V2.05h16.65v8.55h12.7v32.55ZM20.3 10.6h7.5V6.65h-7.5ZM7.6 38.55h32.85v-23.4H7.6Zm11.7-3.1 13.05-8.6L19.3 18.2ZM7.6 15.15v23.4Z"/></svg>

<svg xmlns="http://www.w3.org/2000/svg" height="48" width="48"><path d="M3 43.15V10.6H15.7V2.05H32.35V10.6H45.05V43.15ZM20.3 10.6H27.8V6.65H20.3ZM7.6 38.55H40.45V15.15H7.6ZM19.3 35.45 32.35 26.85 19.3 18.2ZM7.6 15.15V38.55Z"/></svg>
